X:664
T:Reel 664
M:4/4
K:Dmaj
L:1/8
Addc d2cd|eAcA BFGF|Addc d2ed|eaag eddc|dcdA B2AG|EAAA GAEc|dcdc B2AG|FGEF DE2D2|abaf dcde|fdaf beec|dedg abaf|fedf e2A2|afaf gfge|fedc defg|afge fdec|dABG AFG2|
